X: 111
T: Lauretta
%R: jig
Z: 2014 John Chambers <jc:trillian.mit.edu>
B: Thompson "Twenty four Country Dances for the Year 1805" p.11 #1
F: http://folkopedia.efdss.org/images/2/2a/Thompson_24_1805.PDF 2014-8-13
M: 6/8
L: 1/8
K: Bb
F |\
B2B BAB | (f2e) c3 | dfB BAB | .c(c/B/c/d/) cAF |\
B2B BAB | (f2e) c3 | dfB cBc | B3- B2 H:|
D/E/ |\
F3 FDF | B3 BAB | c2c cBc | d3 BDE |\
F3 FDF | B3 Bcd | (dc).A (cB).G | F3 "_D.C."z2 |]
% - - - - - - - - - - - - - - - - - - - - - - - - -
%%begintext align
%% 2 Cu: change sides back again, right
%% hands across half round back again, lead
%% down middle up again, La Poussett with the
%% top Cu:
%%endtext
% - - - - - - - - - - - - - - - - - - - - - - - - -
